X:1073
T:Svingedans
T:(SvL Skåne nr. 1073)
T:efter Johan Andersson
O:Balkåkra, Skåne
S:Svenska Låtar Skåne
B:Svenska Låtar Skåne
Z:Åke Persson, 2012-03-20
R:Svingedans
M:3/4
L:1/8
Q:1/4=108
%%printtempo 0
%%MIDI ratio 2 1
K:G
|: D>G Bd Bd | B>A c2 e2 | D>F Ac AF | G>B B2 d2 |
   D>G Bd Bd | B>A c2 e2 | d>B GB AF | ([G2G,2] L[G4G,4]):|
|: d>d gB Bd | d>c c2 e2 | D>F Ac AF | GB B2 d2 |
   d>d gB Bd | d>c c2 e2 | d>B G2 B2 | A>F G4 :|

